; generated by PrusaSlicer 2.3.0+win64 on 2021-02-21 at 09:47:05 UTC

; 

; external perimeters extrusion width = 0.45mm
; perimeters extrusion width = 0.45mm
; infill extrusion width = 0.45mm
; solid infill extrusion width = 0.45mm
; top infill extrusion width = 0.40mm
; first layer extrusion width = 1.00mm

M107
M190 S60 ; set bed temperature and wait for it to be reached
M104 S210 ; set temperature
;TYPE:Custom
G28 ; home all axes
G1 Z5 F5000 ; lift nozzle
M109 S210 ; set temperature and wait for it to be reached
G21 ; set units to millimeters
G90 ; use absolute coordinates
M82 ; use absolute distances for extrusion
G92 E0
;LAYER_CHANGE
;Z:0.3
;HEIGHT:0.3
G1 Z0.300 F6000.000
G1 E-1.00000 F2400.000
G92 E0
G1 Z0.800 F6000.000
G1 X149.419 Y145.286
G1 Z0.300
G1 E1.00000 F2400.000
;TYPE:Skirt
;WIDTH:1
G1 F1080.000
G1 X150.946 Y144.039 E1.23010
G1 X151.812 Y143.512 E1.34843
G1 X152.839 Y143.021 E1.48126
G1 X153.792 Y142.676 E1.59960
G1 X154.846 Y142.407 E1.72647
G1 X155.907 Y142.247 E1.85164
G1 X156.992 Y142.193 E1.97851
G1 X158.297 Y142.273 E2.13101
G1 X159.638 Y142.526 E2.29033
G1 X161.070 Y142.996 E2.46617
G1 X162.293 Y143.587 E2.62465
G1 X163.402 Y144.305 E2.77885
G1 X164.436 Y145.174 E2.93647
G1 X165.445 Y146.280 E3.11121
G1 X166.199 Y147.356 E3.26447
G1 X172.049 Y158.459 E4.72902
G1 X172.550 Y159.623 E4.87690
G1 X172.961 Y161.361 E5.08530
G1 X173.772 Y168.374 E5.90912
G1 X173.823 Y169.318 E6.01944
G1 X173.715 Y170.691 E6.18012
G1 X173.392 Y172.037 E6.34165
G1 X167.207 Y190.505 E8.61451
G1 X166.814 Y191.490 E8.73819
G1 X166.299 Y192.480 E8.86847
G1 X165.533 Y193.608 E9.02756
G1 X164.520 Y194.743 E9.20509
G1 X163.468 Y195.646 E9.36689
G1 X162.355 Y196.378 E9.52228
G1 X161.103 Y196.990 E9.68500
G1 X159.665 Y197.467 E9.86170
G1 X158.303 Y197.726 E10.02359
G1 X156.984 Y197.807 E10.17780
G1 X155.126 Y197.644 E10.39543
G1 X153.498 Y197.229 E10.59145
G1 X151.798 Y196.480 E10.80826
G1 X150.340 Y195.521 E11.01192
G1 X148.974 Y194.254 E11.22934
G1 X147.842 Y192.759 E11.44815
G1 X147.039 Y191.226 E11.65013
G1 X146.466 Y189.478 E11.86479
G1 X146.253 Y188.269 E12.00798
G1 X146.178 Y187.079 E12.14714
G1 X146.177 Y153.000 E16.12400
G1 X146.233 Y151.915 E16.25075
G1 X146.396 Y150.838 E16.37794
G1 X146.670 Y149.778 E16.50567
G1 X147.034 Y148.785 E16.62913
G1 X147.526 Y147.774 E16.76026
G1 X148.082 Y146.875 E16.88370
G1 X148.760 Y145.991 E17.01359
G1 X149.378 Y145.330 E17.11922
G1 X150.080 Y145.948 F6000.000
G1 F1080.000
G1 X151.464 Y144.818 E17.32770
G1 X153.196 Y143.886 E17.55722
G1 X155.031 Y143.324 E17.78113
G1 X156.988 Y143.129 E18.01069
G1 X158.178 Y143.202 E18.14983
G1 X159.411 Y143.434 E18.29623
G1 X160.728 Y143.868 E18.45806
G1 X161.863 Y144.419 E18.60528
G1 X162.868 Y145.074 E18.74523
G1 X163.820 Y145.880 E18.89083
G1 X164.748 Y146.907 E19.05237
G1 X165.446 Y147.918 E19.19577
G1 X171.219 Y158.892 E20.64275
G1 X171.665 Y159.929 E20.77448
G1 X172.035 Y161.498 E20.96261
G1 X172.887 Y169.322 E21.88102
G1 X172.790 Y170.550 E22.02485
G1 X172.502 Y171.749 E22.16868
G1 X166.328 Y190.184 E24.43737
G1 X165.531 Y191.939 E24.66231
G1 X164.823 Y192.997 E24.81086
G1 X163.895 Y194.045 E24.97429
G1 X162.923 Y194.885 E25.12414
G1 X161.917 Y195.551 E25.26497
G1 X160.766 Y196.117 E25.41459
G1 X159.437 Y196.559 E25.57805
G1 X158.185 Y196.798 E25.72687
G1 X156.981 Y196.871 E25.86763
G1 X155.276 Y196.721 E26.06737
G1 X153.786 Y196.338 E26.24684
G1 X152.221 Y195.645 E26.44661
G1 X150.882 Y194.757 E26.63412
G1 X149.639 Y193.593 E26.83278
G1 X148.597 Y192.203 E27.03549
G1 X147.875 Y190.799 E27.21980
G1 X147.349 Y189.144 E27.42242
G1 X147.175 Y188.099 E27.54600
G1 X147.114 Y187.063 E27.66713
G1 X147.113 Y153.000 E31.64214
G1 X147.314 Y151.023 E31.87402
G1 X147.898 Y149.145 E32.10357
G1 X148.350 Y148.216 E32.22413
G1 X148.862 Y147.391 E32.33742
G1 X150.042 Y145.994 E32.55080
G1 X150.746 Y146.605 F6000.000
G1 F1080.000
G1 X151.984 Y145.596 E32.73717
G1 X153.554 Y144.750 E32.94531
G1 X155.211 Y144.242 E33.14743
G1 X156.992 Y144.064 E33.35636
G1 X158.068 Y144.131 E33.48218
G1 X159.191 Y144.343 E33.61557
G1 X160.398 Y144.743 E33.76396
G1 X161.431 Y145.249 E33.89811
G1 X162.337 Y145.845 E34.02469
G1 X163.201 Y146.584 E34.15732
G1 X164.043 Y147.524 E34.30461
G1 X164.685 Y148.467 E34.43776
G1 X170.387 Y159.318 E35.86822
G1 X170.780 Y160.232 E35.98429
G1 X171.108 Y161.622 E36.15102
G1 X171.951 Y169.322 E37.05486
G1 X171.865 Y170.410 E37.18228
G1 X171.611 Y171.465 E37.30894
G1 X165.446 Y189.870 E39.57396
G1 X164.761 Y191.401 E39.76970
G1 X164.160 Y192.324 E39.89822
G1 X163.404 Y193.213 E40.03439
G1 X162.442 Y194.074 E40.18504
G1 X161.479 Y194.723 E40.32054
G1 X160.498 Y195.215 E40.44862
G1 X159.408 Y195.599 E40.58353
G1 X158.150 Y195.858 E40.73344
G1 X156.983 Y195.936 E40.86986
G1 X155.394 Y195.792 E41.05610
G1 X154.007 Y195.424 E41.22356
G1 X152.555 Y194.760 E41.40982
G1 X151.271 Y193.868 E41.59226
G1 X150.238 Y192.858 E41.76090
G1 X149.316 Y191.587 E41.94413
G1 X148.702 Y190.347 E42.10552
G1 X148.238 Y188.830 E42.29073
G1 X148.049 Y187.047 E42.49991
G1 X148.049 Y153.000 E46.47305
G1 X148.231 Y151.207 E46.68331
G1 X148.764 Y149.498 E46.89224
G1 X149.638 Y147.914 E47.10341
G1 X150.708 Y146.651 E47.29655
;WIPE_START
G1 F4800.000
G1 X151.984 Y145.596 E46.50994
G1 X152.287 Y145.433 E46.34655
;WIPE_END
G1 E46.29655 F2400.000
G92 E0
G1 Z0.800 F6000.000
G1 X163.565 Y171.000
G1 Z0.300
G1 E1.00000 F2400.000
;TYPE:External perimeter
;WIDTH:0.525773
G1 F1080.000
G1 X163.815 Y172.900 E1.11028
G1 X163.846 Y171.715 F6000.000
;WIDTH:0.669796
G1 F1080.000
G1 X163.684 Y172.377 E1.16174
;WIDTH:0.644885
G1 X163.676 Y172.406 E1.16394
;WIDTH:0.641444
G1 X163.555 Y172.807 E1.19409
;WIDTH:0.61588
G1 X163.394 Y173.257 E1.22694
G1 X163.217 Y173.675 E1.25812
;WIDTH:0.741293
G1 X163.016 Y174.090 E1.29713
;WIDTH:0.873049
G1 X162.819 Y174.449 E1.33841
G1 X162.157 Y174.510 E1.40544
;WIPE_START
G1 F4800.000
G1 X162.819 Y174.449 E1.08977
G1 X163.016 Y174.090 E0.89534
;WIPE_END
G1 E0.40544 F2400.000
G92 E0
G1 Z0.800 F6000.000
G1 X159.373 Y178.069
G1 Z0.300
G1 E1.00000 F2400.000
;TYPE:Perimeter
;WIDTH:1
G1 F1080.000
G1 X158.031 Y182.064 E1.49188
G1 X157.560 Y181.988 E1.54752
G1 X157.556 Y177.780 E2.03849
G1 X158.117 Y177.931 E2.10624
G1 X158.798 Y178.039 E2.18674
G1 X159.313 Y178.066 E2.24695
G1 X160.761 Y176.960 F6000.000
G1 F1080.000
G1 X160.487 Y177.690 E2.33789
G1 X157.313 Y187.139 E3.50111
G1 X157.210 Y187.279 E3.52142
G1 X157.113 Y187.335 E3.53452
G1 X157.003 Y187.358 E3.54761
G1 X156.892 Y187.346 E3.56071
G1 X156.806 Y187.308 E3.57160
G1 X156.696 Y187.209 E3.58888
G1 X156.649 Y187.129 E3.59978
G1 X156.630 Y187.036 E3.61076
G1 X156.609 Y176.310 E4.86254
G1 X157.145 Y176.626 E4.93522
G1 X157.734 Y176.859 E5.00916
G1 X158.312 Y177.015 E5.07894
G1 X158.895 Y177.107 E5.14792
G1 X159.492 Y177.138 E5.21760
G1 X160.121 Y177.099 E5.29115
G1 X160.702 Y176.973 E5.36059
;WIPE_START
G1 F4800.000
G1 X160.487 Y177.690 E5.00505
G1 X160.089 Y178.876 E4.41059
;WIPE_END
G1 E4.36059 F2400.000
G92 E0
G1 Z0.800 F6000.000
G1 X162.144 Y175.132
G1 Z0.300
G1 E1.00000 F2400.000
;TYPE:External perimeter
G1 F1080.000
G1 X162.459 Y175.376 E1.04651
G1 X162.197 Y176.159 E1.14288
G1 X161.731 Y177.037 E1.25890
G1 X161.369 Y178.003 E1.37924
G1 X158.170 Y187.525 E2.55150
G1 X158.034 Y187.762 E2.58343
G1 X157.843 Y187.974 E2.61661
G1 X157.758 Y188.043 E2.62941
G1 X157.500 Y188.191 E2.66413
G1 X157.398 Y188.231 E2.67693
G1 X157.107 Y188.293 E2.71165
G1 X156.997 Y188.298 E2.72445
G1 X156.702 Y188.267 E2.75917
G1 X156.596 Y188.239 E2.77197
G1 X156.336 Y188.123 E2.80516
G1 X156.116 Y187.964 E2.83680
G1 X155.935 Y187.762 E2.86844
G1 X155.754 Y187.414 E2.91430
G1 X155.694 Y187.135 E2.94752
G1 X155.684 Y176.996 E4.13076
G1 X155.675 Y176.474 E4.19163
G1 X155.628 Y175.927 E4.25578
G1 X155.523 Y175.427 E4.31535
G1 X155.484 Y174.979 E4.36786
G1 X155.484 Y173.702 E4.51681
G1 X156.140 Y174.512 E4.63833
G1 X156.433 Y174.805 E4.68672
G1 X156.708 Y175.156 E4.73884
G1 X157.102 Y175.514 E4.80092
G1 X157.558 Y175.783 E4.86265
G1 X158.029 Y175.970 E4.92182
G1 X158.507 Y176.098 E4.97956
G1 X158.993 Y176.175 E5.03702
G1 X159.487 Y176.201 E5.09472
G1 X159.992 Y176.169 E5.15376
G1 X160.508 Y176.057 E5.21540
G1 X160.997 Y175.839 E5.27792
G1 X161.367 Y175.585 E5.33032
G1 X161.735 Y175.398 E5.37842
G1 X162.094 Y175.165 E5.42838
G1 X162.247 Y175.517 F6000.000
;WIPE_START
G1 F4800.000
G1 X162.459 Y175.376 E5.22785
G1 X162.197 Y176.159 E4.83560
G1 X161.845 Y176.823 E4.47838
;WIPE_END
G1 E4.42838 F2400.000
G92 E0
G1 Z0.800 F6000.000
G1 X155.304 Y172.685
G1 Z0.300
G1 E1.00000 F2400.000
;WIDTH:0.564722
G1 F1080.000
G1 X155.247 Y171.959 E1.04544
G1 X155.235 Y171.487 E1.07493
;WIDTH:0.58665
G1 X155.245 Y171.068 E1.10221
;WIDTH:0.589524
G1 X155.247 Y171.041 E1.10401
;WIDTH:0.625996
G1 X155.304 Y170.315 E1.15501
G1 X154.984 Y171.269 F6000.000
;WIDTH:0.242178
G1 F1080.000
G1 X155.802 Y169.789 E1.19250
G1 X155.758 Y169.764 F6000.000
;WIDTH:0.525785
G1 F1080.000
G1 X154.984 Y171.386 E1.29595
G1 X154.984 Y171.614 F6000.000
;WIDTH:0.525779
G1 F1080.000
G1 X155.758 Y173.236 E1.39941
G1 X155.802 Y173.211 F6000.000
;WIDTH:0.242176
G1 F1080.000
G1 X154.984 Y171.731 E1.43689
;WIPE_START
G1 F4800.000
G1 X155.802 Y173.211 E0.63395
;WIPE_END
G1 E0.43689 F2400.000
G92 E0
G1 Z0.800 F6000.000
G1 X157.556 Y165.220
G1 Z0.300
G1 E1.00000 F2400.000
;TYPE:Perimeter
;WIDTH:1
G1 F1080.000
G1 X157.563 Y156.255 E2.04611
G1 X157.990 Y156.150 E2.09741
G1 X161.299 Y162.459 E2.92876
G1 X161.030 Y163.159 E3.01627
G1 X160.825 Y163.925 E3.10879
G1 X160.701 Y164.709 E3.20146
G1 X160.684 Y165.043 E3.24038
G1 X160.164 Y164.960 E3.30174
G1 X159.447 Y164.927 E3.38550
G1 X158.797 Y164.961 E3.46150
G1 X158.117 Y165.069 E3.54191
G1 X157.614 Y165.204 E3.60268
G1 X156.609 Y166.690 F6000.000
G1 F1080.000
G1 X156.630 Y152.963 E5.20457
G1 X156.684 Y152.805 E5.22411
G1 X156.746 Y152.735 E5.23500
G1 X156.874 Y152.661 E5.25229
G1 X157.022 Y152.646 E5.26957
G1 X157.113 Y152.665 E5.28046
G1 X157.194 Y152.712 E5.29136
G1 X157.321 Y152.860 E5.31416
G1 X162.350 Y162.448 E6.57758
G1 X162.170 Y162.800 E6.62369
G1 X161.921 Y163.449 E6.70477
G1 X161.742 Y164.120 E6.78585
G1 X161.633 Y164.807 E6.86702
G1 X161.597 Y165.511 E6.94933
G1 X161.647 Y166.258 E7.03666
G1 X160.662 Y165.986 E7.15586
G1 X160.069 Y165.892 E7.22588
G1 X159.451 Y165.864 E7.29818
G1 X158.895 Y165.893 E7.36309
G1 X158.312 Y165.985 E7.43201
G1 X157.734 Y166.141 E7.50179
G1 X157.145 Y166.374 E7.57573
G1 X156.660 Y166.660 E7.64141
;WIPE_START
G1 F4800.000
G1 X156.656 Y164.660 E6.69141
;WIPE_END
G1 E6.64141 F2400.000
G92 E0
G1 Z0.800 F6000.000
G1 X155.484 Y169.298
G1 Z0.300
G1 E1.00000 F2400.000
;TYPE:External perimeter
G1 F1080.000
G1 X155.484 Y168.021 E1.14895
G1 X155.523 Y167.573 E1.20146
G1 X155.628 Y167.073 E1.26103
G1 X155.675 Y166.526 E1.32518
G1 X155.684 Y166.004 E1.38606
G1 X155.694 Y152.865 E2.91939
G1 X155.751 Y152.599 E2.95105
G1 X155.866 Y152.339 E2.98423
G1 X156.116 Y152.036 E3.03010
G1 X156.336 Y151.877 E3.06174
G1 X156.584 Y151.767 E3.09338
G1 X156.849 Y151.710 E3.12502
G1 X157.120 Y151.710 E3.15666
G1 X157.500 Y151.809 E3.20253
G1 X157.747 Y151.951 E3.23571
G1 X157.948 Y152.132 E3.26735
G1 X158.118 Y152.366 E3.30101
G1 X163.416 Y162.467 E4.63207
G1 X163.297 Y162.650 E4.65753
G1 X163.026 Y163.181 E4.72716
G1 X162.812 Y163.738 E4.79680
G1 X162.658 Y164.315 E4.86643
G1 X162.565 Y164.904 E4.93610
G1 X162.534 Y165.504 E5.00616
G1 X162.575 Y166.121 E5.07830
G1 X162.732 Y166.747 E5.15361
G1 X163.116 Y167.494 E5.25163
G1 X163.209 Y167.737 E5.28206
G1 X163.471 Y168.250 E5.34925
G1 X163.784 Y168.733 E5.41644
G1 X164.150 Y169.185 E5.48424
G1 X164.438 Y169.461 E5.53083
G1 X164.009 Y170.744 E5.68875
G1 X163.596 Y169.669 E5.82313
G1 X163.382 Y169.250 E5.87811
G1 X163.125 Y168.855 E5.93308
G1 X162.829 Y168.488 E5.98806
G1 X162.503 Y168.163 E6.04179
G1 X162.192 Y167.888 E6.09027
G1 X161.869 Y167.553 E6.14461
G1 X161.429 Y167.246 E6.20722
G1 X160.949 Y167.036 E6.26836
G1 X160.464 Y166.902 E6.32707
G1 X159.974 Y166.825 E6.38489
G1 X159.454 Y166.801 E6.44572
G1 X158.993 Y166.825 E6.49954
G1 X158.507 Y166.902 E6.55698
G1 X158.029 Y167.030 E6.61472
G1 X157.558 Y167.217 E6.67389
G1 X157.102 Y167.486 E6.73562
G1 X156.708 Y167.844 E6.79770
G1 X156.433 Y168.195 E6.84982
G1 X156.140 Y168.488 E6.89821
G1 X155.522 Y169.251 E7.01273
G1 X155.578 Y168.909 F6000.000
;WIPE_START
G1 F4800.000
G1 X155.484 Y168.021 E6.42831
G1 X155.523 Y167.573 E6.21457
G1 X155.588 Y167.260 E6.06273
;WIPE_END
G1 E6.01273 F2400.000
G92 E0
G1 Z0.800 F6000.000
G1 X161.152 Y176.341
G1 Z0.300
G1 E1.00000 F2400.000
;TYPE:Gap fill
;WIDTH:0.193862
G1 F1080.000
G1 X161.253 Y176.308 E1.00171
;WIDTH:0.197442
G1 X161.265 Y176.304 E1.00191
;WIDTH:0.23228
G1 X161.406 Y176.243 E1.00513
;WIDTH:0.267121
G1 X161.547 Y176.182 E1.00902
;WIDTH:0.301961
G1 X161.688 Y176.121 E1.01357
G1 X161.715 Y175.980 F6000.000
;WIDTH:0.208509
G1 F1080.000
G1 X161.331 Y176.357 E1.02325
;WIPE_START
G1 F4800.000
G1 X161.715 Y175.980 E0.76747
;WIPE_END
G1 E0.02325 F2400.000
G92 E0
G1 Z0.800 F6000.000
G1 X158.379 Y178.446
G1 Z0.300
G1 E1.00000 F2400.000
;WIDTH:0.674535
G1 F1080.000
G1 X158.349 Y178.632 E1.01430
;WIDTH:0.62552
G1 X158.318 Y178.817 E1.02746
;WIDTH:0.576505
G1 X158.288 Y179.003 E1.03946
;WIDTH:0.527489
G1 X158.258 Y179.188 E1.05032
;WIDTH:0.478474
G1 X158.228 Y179.374 E1.06002
;WIDTH:0.429458
G1 X158.197 Y179.559 E1.06858
;WIDTH:0.380443
G1 X158.167 Y179.745 E1.07599
;WIDTH:0.331428
G1 X158.137 Y179.930 E1.08225
;WIDTH:0.282412
G1 X158.107 Y180.116 E1.08736
;WIDTH:0.233397
G1 X158.077 Y180.301 E1.09132
;WIPE_START
G1 F4800.000
G1 X158.107 Y180.116 E1.00205
;WIPE_END
G1 E0.09132 F2400.000
G92 E0
G1 Z0.800 F6000.000
G1 X157.720 Y182.488
G1 Z0.300
G1 E1.00000 F2400.000
;WIDTH:1.14431
G1 F1080.000
G1 X157.692 Y182.664 E1.02401
;WIDTH:1.09631
G1 X157.663 Y182.840 E1.04696
;WIDTH:1.04832
G1 X157.634 Y183.016 E1.06884
;WIDTH:1.00032
G1 X157.606 Y183.192 E1.08965
;WIDTH:0.952325
G1 X157.577 Y183.367 E1.10939
;WIDTH:0.904328
G1 X157.548 Y183.543 E1.12807
;WIDTH:0.856332
G1 X157.520 Y183.719 E1.14568
;WIDTH:0.808336
G1 X157.491 Y183.895 E1.16222
;WIDTH:0.760339
G1 X157.462 Y184.071 E1.17770
;WIDTH:0.712343
G1 X157.434 Y184.247 E1.19211
;WIDTH:0.664346
G1 X157.405 Y184.423 E1.20545
;WIDTH:0.61635
G1 X157.376 Y184.599 E1.21772
;WIDTH:0.568353
G1 X157.348 Y184.775 E1.22893
;WIDTH:0.520357
G1 X157.319 Y184.951 E1.23907
;WIDTH:0.47236
G1 X157.290 Y185.127 E1.24814
;WIDTH:0.424364
G1 X157.262 Y185.303 E1.25614
;WIDTH:0.376367
G1 X157.233 Y185.479 E1.26308
;WIDTH:0.328371
G1 X157.204 Y185.655 E1.26895
;WIDTH:0.280374
G1 X157.176 Y185.831 E1.27376
;WIDTH:0.232378
G1 X157.147 Y186.007 E1.27749
;WIPE_START
G1 F4800.000
G1 X157.176 Y185.831 E1.19281
;WIPE_END
G1 E0.27749 F2400.000
G92 E0
G1 Z0.800 F6000.000
G1 X160.379 Y161.309
G1 Z0.300
G1 E1.00000 F2400.000
;TYPE:Solid infill
;WIDTH:1.03297
G1 F1080.000
G1 X158.262 Y159.192 E1.36159
G1 X158.261 Y160.561 E1.52694
G1 X160.440 Y162.740 E1.89915
G1 X160.362 Y162.942 E1.92535
G1 X160.134 Y163.804 E2.03301
G1 X158.260 Y161.930 E2.35315
G1 X158.259 Y163.298 E2.51850
G1 X159.614 Y164.654 E2.75007
M106 S84.15
;LAYER_CHANGE
;Z:0.54
;HEIGHT:0.24
G1 Z0.540 F6000.000
M104 S205 ; set temperature
G1 E1.75007 F2400.000
G92 E0
G1 Z1.040 F6000.000
G1 X163.446 Y172.103
G1 Z0.540
G1 E1.00000 F2400.000
;TYPE:External perimeter
;WIDTH:0.530814
G1 F1500.000
G1 X163.666 Y172.437 E1.01917
G1 X163.546 Y172.835 E1.03903
G1 X163.276 Y173.536 E1.07496
G1 X161.687 Y176.028 F6000.000
;TYPE:Perimeter
;WIDTH:0.45
G1 F900.000
G1 X157.875 Y187.391 E1.55154
G1 X157.758 Y187.595 E1.56089
G1 X157.642 Y187.722 E1.56771
G1 X157.358 Y187.901 E1.58106
G1 X157.213 Y187.948 E1.58712
G1 X156.984 Y187.972 E1.59627
G1 X156.691 Y187.929 E1.60805
G1 X156.500 Y187.843 E1.61641
G1 X156.334 Y187.723 E1.62456
G1 X156.196 Y187.570 E1.63272
G1 X156.064 Y187.321 E1.64394
G1 X156.017 Y187.101 E1.65286
G1 X156.013 Y175.135 E2.12867
G1 X156.527 Y175.561 E2.15518
G1 X156.973 Y175.850 E2.17632
G1 X157.441 Y176.089 E2.19723
G1 X157.932 Y176.278 E2.21814
G1 X158.440 Y176.414 E2.23905
G1 X158.959 Y176.496 E2.25995
